X: 1
T: The Fairy Dance
R: reel
M: 4/4
L: 1/8
K: Dmaj
|: f2fd f2fd | f2fd cdeg | f2fd gfed | cABc defg :|
|: a2af b2bf | g2ge a2ag | f2fd gfed |1 cABc defg :|2 cABc d3 ||


Tune 424	Setting 13280

